format-align-center.svg

<svg fill="currentColor" viewBox="0 0 24 24"><path d="M3 3h18v2H3zm4 4h10v2H7zm-4 4h18v2H3zm4 4h10v2H7zm-4 4h18v2H3z"/></svg>

<svg  viewBox="0 0 24 24" fill="currentColor"><path  d="M3,3H21V5H3V3M7,7H17V9H7V7M3,11H21V13H3V11M7,15H17V17H7V15M3,19H21V21H3V19Z"/></svg>
